public/assets/leading-decor.svg

<svg xmlns="http://www.w3.org/2000/svg" width="325" height="508" fill="none" viewBox="0 0 325 508"><g stroke="#adcb53" stroke-miterlimit="10" clip-path="url(#a)" opacity=".5"><path d="M447.968-268.729c-24.565-6.58-57.347.1-80.414 8.988-32.923 12.733-63.776 40.586-73.094 74.769-11.481 42.509-35.353 55.498-67.708 82.171-25.323 20.935-46.408 46.778-60.115 76.667-51.225 112.136-17.195 228.249 60.311 317.474 25.768 29.66 53.81 57.205 80.258 86.348 19.873 21.939 56.761 51.383 54.784 83.093"/><path d="M518.315 112.455c-21.119-19.769-45.967-35.859-63.923-44.31-41.112-19.342-108.533-25.575-145.564 5.719-47.313 39.949-35.701 101.341-.101 145.803 26.84 33.404 67.972 44.256 110.735 43.494 37.716-.626 77.887-7.976 109.751-29.17 15.619-10.381 30.391-25.428 31.551-44.187 1.699-26.57-17.915-54.37-42.449-77.349Z"/><path d="M408.741 311.227c50.881 3.986 111.587-4.278 155.613-31.292 17.931-11.054 40.816-31.867 42.114-54.792 6.069-111.698-115.273-236.977-224.891-239.967-60.5-1.647-122.64 24.496-149.178 81.754-20.036 43.155-21.63 95.303-1.355 138.401 30.724 65.373 105.547 100.234 177.697 105.896Z"/></g><defs><clipPath id="a"><path fill="#fff" d="M354-328.378 789.27-54.81 435.881 507.46.612 233.89z"/></clipPath></defs></svg>

<svg width="325" height="508" viewBox="0 0 325 508" fill="none" xmlns="http://www.w3.org/2000/svg">
<g opacity="0.5" clip-path="url(#clip0_6146_22916)">
<path d="M447.968 -268.729C423.403 -275.309 390.621 -268.629 367.554 -259.741C334.631 -247.008 303.778 -219.155 294.46 -184.972C282.979 -142.463 259.107 -129.474 226.752 -102.801C201.429 -81.8662 180.344 -56.0234 166.637 -26.134C115.412 86.0019 149.442 202.115 226.948 291.34C252.716 321 280.758 348.545 307.206 377.688C327.079 399.627 363.967 429.071 361.99 460.781" stroke="#ADCB53" stroke-miterlimit="10"/>
<path d="M518.315 112.455C497.196 92.6861 472.348 76.5964 454.392 68.1454C413.28 48.803 345.859 42.5702 308.828 73.8638C261.515 113.813 273.127 175.205 308.727 219.667C335.567 253.071 376.699 263.923 419.462 263.161C457.178 262.535 497.349 255.185 529.213 233.991C544.832 223.61 559.604 208.563 560.764 189.804C562.463 163.234 542.849 135.434 518.315 112.455Z" stroke="#ADCB53" stroke-miterlimit="10"/>
<path d="M408.741 311.227C459.622 315.213 520.328 306.949 564.354 279.935C582.285 268.881 605.17 248.068 606.468 225.143C612.537 113.445 491.195 -11.8345 381.577 -14.8238C321.077 -16.4706 258.937 9.67174 232.399 66.9299C212.363 110.085 210.769 162.233 231.044 205.331C261.768 270.704 336.591 305.565 408.741 311.227Z" stroke="#ADCB53" stroke-miterlimit="10"/>
</g>
<defs>
<clipPath id="clip0_6146_22916">
<rect width="514.1" height="664.1" fill="white" transform="translate(354 -328.378) rotate(32.1495)"/>
</clipPath>
</defs>
</svg>
